static/assets/head_icons_png/man/bizi/1004531.svg

<svg xmlns="http://www.w3.org/2000/svg" width="5" height="9"><g><radialGradient id="a" gradientUnits="userSpaceOnUse" gradientTransform="matrix(.00134 -.0001 .00018 .00258 2.75 3.7)" spreadMethod="pad" cx="0" cy="0" r="819.2" fx="0" fy="0"><stop offset=".337" stop-color="#f9c29f"/><stop offset="1" stop-color="#fedec1" stop-opacity="0"/></radialGradient><path d="M4.05 4.25q0 .45-.8.7-.25.1-.5.55l.05-.05-.15-1.55.3-2.05v.25-.3q.35 1.45.85 1.8l.25.2v.45" fill="url(#a)"/><path d="M2.1 7.8h-.25l-.2-.2.35.15.4-.15-.3.2" fill="#fff" fill-opacity=".502"/><path d="M2.85 6.65l-.2.6-.1.15.2-.55V6.5L2.6 3.95l.15-2.75.1.75L2.8 3.5l-.1 1.2.05.25.1 1.7" fill="#f8b98d" fill-opacity=".502"/><radialGradient id="b" gradientUnits="userSpaceOnUse" gradientTransform="matrix(.00092 -.00194 .00177 .001 2.85 1)" spreadMethod="pad" cx="0" cy="0" r="819.2" fx="0" fy="0"><stop offset="0" stop-color="#f39b61" stop-opacity=".643"/><stop offset="1" stop-color="#f8be98" stop-opacity=".353"/></radialGradient><path d="M3.35 2.7l-.5-.75-.1-.75v-.05l.15-.5.8-.65q-.15.5.3.75-.6.8-.6 1.55l.05.55v.05l-.1-.2" fill="url(#b)"/><radialGradient id="c" gradientUnits="userSpaceOnUse" gradientTransform="matrix(.00963 0 0 .01064 1.8 -.5)" spreadMethod="pad" cx="0" cy="0" r="819.2" fx="0" fy="0"><stop offset="0" stop-color="#f39b61" stop-opacity=".471"/><stop offset="1" stop-color="#f8be98" stop-opacity="0"/></radialGradient><path d="M1.1 6.75l.05.35-.3-.65-.3-.55-.3.05.1-.2.3-1.25.2-2.2q.2-1.2-.3-1.35L.4.2V.15q.85.3 1.1.85l.1.3q-.35 1.2-.35 1.8l.1 1.15-.05.4-.05.5-.15 1.6" fill="url(#c)"/><radialGradient id="d" gradientUnits="userSpaceOnUse" gradientTransform="matrix(.00197 .00021 -.0002 .00218 3.15 1.3)" spreadMethod="pad" cx="0" cy="0" r="819.2" fx="0" fy="0"><stop offset="0" stop-color="#f39b61" stop-opacity=".502"/><stop offset="1" stop-color="#f8be98" stop-opacity=".353"/></radialGradient><path d="M3.9 3.7h-.05l.05-.05v.05" fill="url(#d)"/><radialGradient id="e" gradientUnits="userSpaceOnUse" gradientTransform="matrix(-.00003 .00673 -.00601 -.00003 5.45 4.7)" spreadMethod="pad" cx="0" cy="0" r="819.2" fx="0" fy="0"><stop offset="0" stop-color="#f39b61" stop-opacity=".98"/><stop offset="1" stop-color="#f8be98" stop-opacity="0"/></radialGradient><path d="M2.95 5.85q.3-.6.4-1.9v.7q0 .65.3 1.1l.1.2-.25-.1q-.3 0-.45.55l-.1-.55" fill="url(#e)"/><radialGradient id="f" gradientUnits="userSpaceOnUse" gradientTransform="matrix(.00638 0 0 .00703 3.45 2.55)" spreadMethod="pad" cx="0" cy="0" r="819.2" fx="0" fy="0"><stop offset="0" stop-color="#f39b61" stop-opacity=".871"/><stop offset="1" stop-color="#f8be98" stop-opacity="0"/></radialGradient><path d="M3.15 7.15L3.1 6.6l-.05-.2q.15-.55.45-.55l.25.1.05.15.15.7-.65.65.15-.3h-.1l-.25.2.05-.2" fill="url(#f)"/><linearGradient id="g" gradientUnits="userSpaceOnUse" gradientTransform="matrix(-.00237 -.0002 .00032 -.0048 1.95 4.3)" x1="-819.2" x2="819.2"><stop offset="0" stop-color="#f39b61" stop-opacity=".333"/><stop offset="1" stop-color="#f8be98" stop-opacity=".871"/></linearGradient><path d="M2.4 7.6l.15-.2.1-.15.2-.6-.1-1.7.2.9.1.55.05.2.05.55-.05.2-.85.65-.3.1-.75-.55-.3-.3L.65 7l-.2.3-.25-.2q.1-.3.3-.3l.6.45.4.3.35.25h.25l.3-.2" fill="url(#g)"/><radialGradient id="h" gradientUnits="userSpaceOnUse" gradientTransform="matrix(.00243 0 0 .00267 2.05 7.65)" spreadMethod="pad" cx="0" cy="0" r="819.2" fx="0" fy="0"><stop offset="0" stop-color="#f39b61" stop-opacity=".592"/><stop offset="1" stop-color="#f8be98" stop-opacity="0"/></radialGradient><path d="M1.5 7.55l-.1-.05-.25-.4-.05-.35.15-1.6V6.6l.2.75.2.25.2.2-.35-.25" fill="url(#h)"/><radialGradient id="i" gradientUnits="userSpaceOnUse" gradientTransform="matrix(.00307 0 0 .00339 -2.1 5.2)" spreadMethod="pad" cx="0" cy="0" r="819.2" fx="0" fy="0"><stop offset="0" stop-color="#f39b61"/><stop offset="1" stop-color="#f8be98" stop-opacity=".553"/></radialGradient><path d="M1.4 7.5l.1.05-.4-.3-.6-.45q-.2 0-.3.3l-.15-.45.05-.5.15-.2.3-.05.3.55.3.65.25.4" fill="url(#i)"/><radialGradient id="j" gradientUnits="userSpaceOnUse" gradientTransform="matrix(.00638 0 0 .00703 3.45 2.55)" spreadMethod="pad" cx="0" cy="0" r="819.2" fx="0" fy="0"><stop offset="0" stop-color="#f39b61" stop-opacity=".463"/><stop offset="1" stop-color="#f8be98" stop-opacity="0"/></radialGradient><path d="M2.95 5.85l-.2-.9-.05-.25.1-1.2.05-1.55.5.75.1.2-.05.55-.05.25v.25q-.1 1.3-.4 1.9" fill="url(#j)"/><radialGradient id="k" gradientUnits="userSpaceOnUse" gradientTransform="matrix(.0001 -.00023 .00053 .00017 .4 6.4)" spreadMethod="pad" cx="0" cy="0" r="819.2" fx="0" fy="0"><stop offset=".314" stop-color="#fff" stop-opacity=".431"/><stop offset="1" stop-color="#fff" stop-opacity="0"/></radialGradient><path d="M.65 6.65h-.3l-.3-.15L0 6.35q0-.1.15-.1H.5l.3.15.05.2-.2.05" fill="url(#k)"/><radialGradient id="l" gradientUnits="userSpaceOnUse" gradientTransform="matrix(.00047 .00008 -.00002 .0031 1.65 3.3)" spreadMethod="pad" cx="0" cy="0" r="819.2" fx="0" fy="0"><stop offset=".314" stop-color="#fff" stop-opacity=".431"/><stop offset="1" stop-color="#fff" stop-opacity="0"/></radialGradient><path d="M1.65.85l.25.75.05 1.8-.1 1.75-.05.35v.05l-.15.3-.15-.35v-.05l-.05-.35-.1-1.8.1-1.8.2-.65" fill="url(#l)"/><radialGradient id="m" gradientUnits="userSpaceOnUse" gradientTransform="matrix(.00038 .00005 -.00003 .00087 1.6 6.7)" spreadMethod="pad" cx="0" cy="0" r="819.2" fx="0" fy="0"><stop offset=".314" stop-color="#fff" stop-opacity=".431"/><stop offset="1" stop-color="#fff" stop-opacity="0"/></radialGradient><path d="M1.9 6.75l-.15.5-.2.15-.2-.25-.1-.5.1-.45q.1-.2.25-.2l.2.2.1.55" fill="url(#m)"/><radialGradient id="n" gradientUnits="userSpaceOnUse" gradientTransform="matrix(-.00015 -.00018 -.00046 .00035 3.5 6.5)" spreadMethod="pad" cx="0" cy="0" r="819.2" fx="0" fy="0"><stop offset=".314" stop-color="#fff" stop-opacity=".431"/><stop offset="1" stop-color="#fff" stop-opacity="0"/></radialGradient><path d="M3.15 6.65l.25-.25.3-.15.2.05-.05.15-.2.25-.3.15h-.2v-.2" fill="url(#n)"/><radialGradient id="o" gradientUnits="userSpaceOnUse" gradientTransform="matrix(.0001 .00021 -.00015 .0005 2.65 7)" spreadMethod="pad" cx="0" cy="0" r="819.2" fx="0" fy="0"><stop offset=".314" stop-color="#fff" stop-opacity=".431"/><stop offset="1" stop-color="#fff" stop-opacity="0"/></radialGradient><path d="M2.75 6.65l.05.15-.1.35-.05.15-.05.1h-.1l-.05-.25.05-.35.15-.25h.1v.1" fill="url(#o)"/><path d="M3.05 7.45l-.1.1-.1.05-.1.1.25-.35.1-.05q.2-.25.35-.2v.05l-.4.3M1 7.4l-.15-.1-.25-.2L.55 7l.3.15.1.1.25.35h-.05l-.1-.1L1 7.4" fill="#823909" fill-opacity=".702"/></g></svg>

<?xml version="1.0" encoding="utf-8"?>
<svg version="1.1" id="Layer_1"
xmlns="http://www.w3.org/2000/svg"
xmlns:xlink="http://www.w3.org/1999/xlink"
xmlns:author="http://www.sothink.com"
width="5px" height="9px"
xml:space="preserve">
<g id="439" transform="matrix(1, 0, 0, 1, 0, 0)">
<radialGradient
id="RadialGradID_3898" gradientUnits="userSpaceOnUse" gradientTransform="matrix(0.00134277, -0.000106812, 0.000183105, 0.00257874, 2.75, 3.7)" spreadMethod ="pad" cx="0" cy="0" r="819.2" fx="0" fy="0" >
<stop  offset="0.337255"  style="stop-color:#F9C29F;stop-opacity:1" />
<stop  offset="1"  style="stop-color:#FEDEC1;stop-opacity:0" />
</radialGradient>
<path style="fill:url(#RadialGradID_3898) " d="M4.05,4.25Q4.05 4.7 3.25 4.95Q3 5.05 2.75 5.5L2.8 5.45L2.65 3.9L2.95 1.85L2.95 2.1L2.95 1.8Q3.3 3.25 3.8 3.6L4.05 3.8L4.05 4.25" />
<path style="fill:#FFFFFF;fill-opacity:0.501961" d="M2.1,7.8L2 7.8L1.95 7.8L1.9 7.8L1.85 7.8L1.65 7.6L2 7.75L2.4 7.6L2.1 7.8" />
<path style="fill:#F8B98D;fill-opacity:0.501961" d="M2.85,6.65L2.65 7.25L2.55 7.4L2.75 6.85L2.75 6.5L2.6 3.95L2.75 1.2L2.85 1.95L2.8 3.5L2.7 4.7L2.75 4.95L2.85 6.65" />
<radialGradient
id="RadialGradID_3899" gradientUnits="userSpaceOnUse" gradientTransform="matrix(0.000915527, -0.00193787, 0.00177002, 0.00100708, 2.85, 1)" spreadMethod ="pad" cx="0" cy="0" r="819.2" fx="0" fy="0" >
<stop  offset="0"  style="stop-color:#F39B61;stop-opacity:0.643137" />
<stop  offset="1"  style="stop-color:#F8BE98;stop-opacity:0.352941" />
</radialGradient>
<path style="fill:url(#RadialGradID_3899) " d="M3.35,2.7L2.85 1.95L2.75 1.2L2.75 1.15L2.9 0.65L3.7 0Q3.55 0.5 4 0.75Q3.4 1.55 3.4 2.3L3.45 2.85L3.45 2.9L3.35 2.7" />
<radialGradient
id="RadialGradID_3900" gradientUnits="userSpaceOnUse" gradientTransform="matrix(0.0096283, 0, 0, 0.0106354, 1.8, -0.5)" spreadMethod ="pad" cx="0" cy="0" r="819.2" fx="0" fy="0" >
<stop  offset="0"  style="stop-color:#F39B61;stop-opacity:0.470588" />
<stop  offset="1"  style="stop-color:#F8BE98;stop-opacity:0" />
</radialGradient>
<path style="fill:url(#RadialGradID_3900) " d="M1.1,6.75L1.15 7.1L0.85 6.45L0.55 5.9L0.25 5.95L0.35 5.75L0.65 4.5L0.85 2.3Q1.05 1.1 0.55 0.95L0.4 0.2L0.4 0.15Q1.25 0.45 1.5 1L1.6 1.3Q1.25 2.5 1.25 3.1L1.35 4.25L1.3 4.65L1.25 5.15L1.1 6.75" />
<radialGradient
id="RadialGradID_3901" gradientUnits="userSpaceOnUse" gradientTransform="matrix(0.00196838, 0.000213623, -0.000198364, 0.00218201, 3.15, 1.3)" spreadMethod ="pad" cx="0" cy="0" r="819.2" fx="0" fy="0" >
<stop  offset="0"  style="stop-color:#F39B61;stop-opacity:0.501961" />
<stop  offset="1"  style="stop-color:#F8BE98;stop-opacity:0.352941" />
</radialGradient>
<path style="fill:url(#RadialGradID_3901) " d="M3.9,3.7L3.85 3.7L3.9 3.65L3.9 3.7" />
<radialGradient
id="RadialGradID_3902" gradientUnits="userSpaceOnUse" gradientTransform="matrix(-3.05176e-005, 0.00672913, -0.00601196, -3.05176e-005, 5.45, 4.7)" spreadMethod ="pad" cx="0" cy="0" r="819.2" fx="0" fy="0" >
<stop  offset="0"  style="stop-color:#F39B61;stop-opacity:0.980392" />
<stop  offset="1"  style="stop-color:#F8BE98;stop-opacity:0" />
</radialGradient>
<path style="fill:url(#RadialGradID_3902) " d="M2.95,5.85Q3.25 5.25 3.35 3.95L3.35 4.65Q3.35 5.3 3.65 5.75L3.75 5.95L3.5 5.85Q3.2 5.85 3.05 6.4L2.95 5.85" />
<radialGradient
id="RadialGradID_3903" gradientUnits="userSpaceOnUse" gradientTransform="matrix(0.00637817, 0, 0, 0.0070343, 3.45, 2.55)" spreadMethod ="pad" cx="0" cy="0" r="819.2" fx="0" fy="0" >
<stop  offset="0"  style="stop-color:#F39B61;stop-opacity:0.870588" />
<stop  offset="1"  style="stop-color:#F8BE98;stop-opacity:0" />
</radialGradient>
<path style="fill:url(#RadialGradID_3903) " d="M3.15,7.15L3.1 6.6L3.05 6.4Q3.2 5.85 3.5 5.85L3.75 5.95L3.8 6.1L3.95 6.8L3.3 7.45L3.45 7.15L3.35 7.15L3.1 7.35L3.15 7.15" />
<linearGradient
id="LinearGradID_3904" gradientUnits="userSpaceOnUse" gradientTransform="matrix(-0.00236511, -0.000198364, 0.000320435, -0.00479126, 1.95, 4.3)" spreadMethod ="pad" x1="-819.2" y1="0" x2="819.2" y2="0" >
<stop  offset="0" style="stop-color:#F39B61;stop-opacity:0.333333" />
<stop  offset="1" style="stop-color:#F8BE98;stop-opacity:0.870588" />
</linearGradient>
<path style="fill:url(#LinearGradID_3904) " d="M2.4,7.6L2.55 7.4L2.65 7.25L2.85 6.65L2.75 4.95L2.95 5.85L3.05 6.4L3.1 6.6L3.15 7.15L3.1 7.35L2.25 8L1.95 8.1L1.2 7.55L0.9 7.25L0.65 7L0.45 7.3L0.2 7.1Q0.3 6.8 0.5 6.8L1.1 7.25L1.5 7.55L1.85 7.8L1.9 7.8L1.95 7.8L2 7.8L2.1 7.8L2.4 7.6" />
<radialGradient
id="RadialGradID_3905" gradientUnits="userSpaceOnUse" gradientTransform="matrix(0.00242615, 0, 0, 0.00267029, 2.05, 7.65)" spreadMethod ="pad" cx="0" cy="0" r="819.2" fx="0" fy="0" >
<stop  offset="0"  style="stop-color:#F39B61;stop-opacity:0.592157" />
<stop  offset="1"  style="stop-color:#F8BE98;stop-opacity:0" />
</radialGradient>
<path style="fill:url(#RadialGradID_3905) " d="M1.5,7.55L1.4 7.5L1.15 7.1L1.1 6.75L1.25 5.15L1.25 6.6L1.45 7.35L1.65 7.6L1.85 7.8L1.5 7.55" />
<radialGradient
id="RadialGradID_3906" gradientUnits="userSpaceOnUse" gradientTransform="matrix(0.00306702, 0, 0, 0.00338745, -2.1, 5.2)" spreadMethod ="pad" cx="0" cy="0" r="819.2" fx="0" fy="0" >
<stop  offset="0"  style="stop-color:#F39B61;stop-opacity:1" />
<stop  offset="1"  style="stop-color:#F8BE98;stop-opacity:0.552941" />
</radialGradient>
<path style="fill:url(#RadialGradID_3906) " d="M1.4,7.5L1.5 7.55L1.1 7.25L0.5 6.8Q0.3 6.8 0.2 7.1L0.05 6.65L0.1 6.15L0.25 5.95L0.55 5.9L0.85 6.45L1.15 7.1L1.4 7.5" />
<radialGradient
id="RadialGradID_3907" gradientUnits="userSpaceOnUse" gradientTransform="matrix(0.00637817, 0, 0, 0.0070343, 3.45, 2.55)" spreadMethod ="pad" cx="0" cy="0" r="819.2" fx="0" fy="0" >
<stop  offset="0"  style="stop-color:#F39B61;stop-opacity:0.462745" />
<stop  offset="1"  style="stop-color:#F8BE98;stop-opacity:0" />
</radialGradient>
<path style="fill:url(#RadialGradID_3907) " d="M2.95,5.85L2.75 4.95L2.7 4.7L2.8 3.5L2.85 1.95L3.35 2.7L3.45 2.9L3.4 3.45L3.35 3.7L3.35 3.95Q3.25 5.25 2.95 5.85" />
<radialGradient
id="RadialGradID_3908" gradientUnits="userSpaceOnUse" gradientTransform="matrix(9.15527e-005, -0.000228882, 0.000534058, 0.000167847, 0.4, 6.4)" spreadMethod ="pad" cx="0" cy="0" r="819.2" fx="0" fy="0" >
<stop  offset="0.313725"  style="stop-color:#FFFFFF;stop-opacity:0.431373" />
<stop  offset="1"  style="stop-color:#FFFFFF;stop-opacity:0" />
</radialGradient>
<path style="fill:url(#RadialGradID_3908) " d="M0.65,6.65L0.35 6.65L0.05 6.5L0 6.35Q0 6.25 0.15 6.25L0.5 6.25L0.8 6.4L0.85 6.6L0.65 6.65" />
<radialGradient
id="RadialGradID_3909" gradientUnits="userSpaceOnUse" gradientTransform="matrix(0.000473022, 7.62939e-005, -1.52588e-005, 0.00309753, 1.65, 3.3)" spreadMethod ="pad" cx="0" cy="0" r="819.2" fx="0" fy="0" >
<stop  offset="0.313725"  style="stop-color:#FFFFFF;stop-opacity:0.431373" />
<stop  offset="1"  style="stop-color:#FFFFFF;stop-opacity:0" />
</radialGradient>
<path style="fill:url(#RadialGradID_3909) " d="M1.65,0.85L1.9 1.6L1.95 3.4L1.85 5.15L1.8 5.5L1.8 5.55L1.65 5.85L1.5 5.5L1.5 5.45L1.45 5.1L1.35 3.3L1.45 1.5L1.65 0.85" />
<radialGradient
id="RadialGradID_3910" gradientUnits="userSpaceOnUse" gradientTransform="matrix(0.00038147, 4.57764e-005, -3.05176e-005, 0.000869751, 1.6, 6.7)" spreadMethod ="pad" cx="0" cy="0" r="819.2" fx="0" fy="0" >
<stop  offset="0.313725"  style="stop-color:#FFFFFF;stop-opacity:0.431373" />
<stop  offset="1"  style="stop-color:#FFFFFF;stop-opacity:0" />
</radialGradient>
<path style="fill:url(#RadialGradID_3910) " d="M1.9,6.75L1.75 7.25L1.55 7.4L1.35 7.15L1.25 6.65L1.35 6.2Q1.45 6 1.6 6L1.8 6.2L1.9 6.75" />
<radialGradient
id="RadialGradID_3911" gradientUnits="userSpaceOnUse" gradientTransform="matrix(-0.000152588, -0.000183105, -0.000457764, 0.000350952, 3.5, 6.5)" spreadMethod ="pad" cx="0" cy="0" r="819.2" fx="0" fy="0" >
<stop  offset="0.313725"  style="stop-color:#FFFFFF;stop-opacity:0.431373" />
<stop  offset="1"  style="stop-color:#FFFFFF;stop-opacity:0" />
</radialGradient>
<path style="fill:url(#RadialGradID_3911) " d="M3.15,6.65L3.4 6.4L3.7 6.25L3.9 6.3L3.85 6.45L3.65 6.7L3.35 6.85L3.15 6.85L3.15 6.65" />
<radialGradient
id="RadialGradID_3912" gradientUnits="userSpaceOnUse" gradientTransform="matrix(0.000106812, 0.000213623, -0.000152588, 0.00050354, 2.65, 7)" spreadMethod ="pad" cx="0" cy="0" r="819.2" fx="0" fy="0" >
<stop  offset="0.313725"  style="stop-color:#FFFFFF;stop-opacity:0.431373" />
<stop  offset="1"  style="stop-color:#FFFFFF;stop-opacity:0" />
</radialGradient>
<path style="fill:url(#RadialGradID_3912) " d="M2.75,6.65L2.8 6.8L2.7 7.15L2.65 7.3L2.6 7.4L2.5 7.4L2.45 7.15L2.5 6.8L2.65 6.55L2.75 6.55L2.75 6.65" />
<path style="fill:#823909;fill-opacity:0.701961" d="M3.05,7.45L2.95 7.55L2.85 7.6L2.75 7.7L3 7.35L3.1 7.3Q3.3 7.05 3.45 7.1L3.45 7.15L3.05 7.45M1,7.4L0.85 7.3L0.6 7.1L0.55 7L0.85 7.15L0.95 7.25L1.2 7.6L1.15 7.6L1.05 7.5L1 7.4" />
</g>
</svg>
